icons/credit_card_fill.svg

<svg width="48" height="48" viewBox="0 0 48 48" fill="none" xmlns="http://www.w3.org/2000/svg">
<path fill-rule="evenodd" clip-rule="evenodd" d="M7 10C5.34315 10 4 11.3431 4 13V17H44V13C44 11.3431 42.6569 10 41 10H7ZM44 23H4V35C4 36.6569 5.34315 38 7 38H41C42.6569 38 44 36.6569 44 35V23Z" fill="black"/>
</svg>

<svg
  xmlns="http://www.w3.org/2000/svg"
  width="24"
  height="24"
  viewBox="0 0 24 24"
  fill="none"
  stroke="currentColor"
  stroke-width="2"
  stroke-linecap="round"
  stroke-linejoin="round"
>
  <path
    fill-rule="evenodd"
    d="M7 10a3 3 0 0 0-3 3v4h40v-4a3 3 0 0 0-3-3zm37 13H4v12a3 3 0 0 0 3 3h34a3 3 0 0 0 3-3z"
    clip-rule="evenodd"
  />
</svg>
